X:10013
T:Jack Robinson
R:Hornpipe
C:Trad.
O:England
Z:Paul Hardy's Session Tunebook 2015 (see www.paulhardy.net). Creative Commons cc by-nc-sa licenced.
M:4/4
L:1/8
Q:1/4=150
K:G
FE|"G"D2G2 D2BB|"C"c2c2 A4|"D"FGA2 FGA2|"G"GBd^c d3d|
"C"edce "G"d2B2|"Am"cBAB "D"A2G2|"G"D2G2 "Am"FGAB|"D"A2G2 "G"G2:|
|:Bc|"G"d2B2 "C"cde2|"C"e2A2 "D"A2Bc|"G"d2B2 "C"cde2|"Am"edcB "D"AcBA|
"G"GABc d2B2|"C"cBAB A2G2|"D"D2G2 FGAB|"D"A2G2 "G"G2:|

